X: 21255
T: Keep It Up
R: reel
M: 4/4
K: Edorian
c|dEBE dEBc|dEBE FDDc|dEBE GBeB|(3cBA dA FDDc|
dEBE .B.B.Bc|dEBG FDDc|dEBE GBeB|cAdA FDDf|
gebe geef|(3gfe be fddf|(3gfe be gefd|(3cBA dA FDDf|
gebe .g.g.gf|gebe fddf|ebgf fbeg|fcdA FDDc||

